source/img/advantages/adv-4.svg

<svg width="120" height="110" viewBox="0 0 120 110" fill="none" xmlns="http://www.w3.org/2000/svg">
<path d="M1.1251 36.0625C1.5001 36.0625 1.8751 35.6875 1.8751 35.3125V26.2188C1.8751 25.8438 1.59385 25.5625 1.21885 25.5625C0.843854 25.5625 0.562604 25.8438 0.562604 26.2188V35.3125C0.468854 35.6875 0.750104 36.0625 1.1251 36.0625Z" fill="#616161"/>
<path d="M1.125 43.5625C1.5 43.5625 1.78125 43.2812 1.78125 42.9062V39.625C1.78125 39.25 1.5 38.9688 1.125 38.9688C0.75 38.9688 0.46875 39.25 0.46875 39.625V42.9062C0.46875 43.2812 0.75 43.5625 1.125 43.5625Z" fill="#616161"/>
<path d="M118.875 57.7188C118.5 57.7188 118.219 58 118.219 58.375V67.4688C118.219 67.8438 118.5 68.125 118.875 68.125C119.25 68.125 119.531 67.8438 119.531 67.4688V58.375C119.531 58 119.25 57.7188 118.875 57.7188Z" fill="#616161"/>
<path d="M118.875 71.125C118.5 71.125 118.219 71.4063 118.219 71.7813V75.0625C118.219 75.4375 118.5 75.7188 118.875 75.7188C119.25 75.7188 119.531 75.4375 119.531 75.0625V71.7813C119.531 71.4063 119.25 71.125 118.875 71.125Z" fill="#616161"/>
<path d="M73.3125 34.5625C73.3125 36.4375 74.9063 38.0313 76.7813 38.0313C78.6563 38.0313 80.25 36.4375 80.25 34.5625C80.25 32.6875 78.6563 31.0938 76.7813 31.0938C74.9063 31.0938 73.3125 32.6875 73.3125 34.5625ZM78.8438 34.5625C78.8438 35.6875 77.9063 36.625 76.7813 36.625C75.6563 36.625 74.7187 35.6875 74.7187 34.5625C74.7187 33.4375 75.6563 32.5 76.7813 32.5C77.9063 32.5 78.8438 33.4375 78.8438 34.5625Z" fill="#616161"/>
<path d="M3.9375 77.875C2.0625 77.875 0.46875 79.4687 0.46875 81.3437C0.46875 83.2187 2.0625 84.8125 3.9375 84.8125C5.8125 84.8125 7.40625 83.2187 7.40625 81.3437C7.40625 79.375 5.8125 77.875 3.9375 77.875ZM3.9375 83.4063C2.8125 83.4063 1.875 82.4687 1.875 81.3437C1.875 80.2187 2.8125 79.2812 3.9375 79.2812C5.0625 79.2812 6 80.2187 6 81.3437C6 82.4687 5.0625 83.4063 3.9375 83.4063Z" fill="#616161"/>
<path d="M25.875 5.78125C25.875 6.15625 26.1562 6.4375 26.5312 6.4375H37.875C38.25 6.4375 38.5312 6.15625 38.5312 5.78125C38.5312 5.40625 38.25 5.125 37.875 5.125H26.5312C26.1562 5.125 25.875 5.40625 25.875 5.78125Z" fill="#616161"/>
<path d="M19.125 6.4375H22.7812C23.1562 6.4375 23.4375 6.15625 23.4375 5.78125C23.4375 5.40625 23.1562 5.125 22.7812 5.125H19.125C18.75 5.125 18.4688 5.40625 18.4688 5.78125C18.4688 6.15625 18.75 6.4375 19.125 6.4375Z" fill="#616161"/>
<path d="M19.125 2.59375H27C27.375 2.59375 27.6562 2.3125 27.6562 1.9375C27.6562 1.5625 27.375 1.28125 27 1.28125H19.125C18.75 1.28125 18.4688 1.5625 18.4688 1.9375C18.4688 2.3125 18.75 2.59375 19.125 2.59375Z" fill="#616161"/>
<path d="M30.4688 2.59375H33C33.375 2.59375 33.6563 2.3125 33.6563 1.9375C33.6563 1.5625 33.375 1.28125 33 1.28125H30.4688C30.0938 1.28125 29.8125 1.5625 29.8125 1.9375C29.8125 2.3125 30.0938 2.59375 30.4688 2.59375Z" fill="#616161"/>
<path d="M102.656 104.5C102.656 104.125 102.375 103.844 102 103.844H90.6562C90.2812 103.844 90 104.125 90 104.5C90 104.875 90.2812 105.156 90.6562 105.156H102C102.375 105.25 102.656 104.875 102.656 104.5Z" fill="#616161"/>
<path d="M109.406 103.844H105.75C105.375 103.844 105.094 104.125 105.094 104.5C105.094 104.875 105.375 105.156 105.75 105.156H109.406C109.781 105.156 110.063 104.875 110.063 104.5C110.063 104.125 109.781 103.844 109.406 103.844Z" fill="#616161"/>
<path d="M109.406 107.688H101.531C101.156 107.688 100.875 107.969 100.875 108.344C100.875 108.719 101.156 109 101.531 109H109.406C109.781 109 110.063 108.719 110.063 108.344C110.063 108.063 109.781 107.688 109.406 107.688Z" fill="#616161"/>
<path d="M98.0625 107.688H95.5313C95.1563 107.688 94.875 107.969 94.875 108.344C94.875 108.719 95.1563 109 95.5313 109H98.0625C98.4375 109 98.7188 108.719 98.7188 108.344C98.8125 108.063 98.4375 107.688 98.0625 107.688Z" fill="#616161"/>
<path d="M110.812 2.6875C110.906 2.78125 111.094 2.875 111.281 2.875C111.469 2.875 111.656 2.78125 111.75 2.6875C112.031 2.40625 112.031 1.9375 111.75 1.75L110.25 0.25C109.969 -0.03125 109.5 -0.03125 109.312 0.25C109.031 0.53125 109.031 1 109.312 1.1875L110.812 2.6875Z" fill="#616161"/>
<path d="M115.125 4.9375C114.844 4.65625 114.375 4.65625 114.188 4.9375C113.906 5.21875 113.906 5.6875 114.188 5.875L115.688 7.375C115.781 7.46875 115.969 7.5625 116.156 7.5625C116.344 7.5625 116.531 7.46875 116.625 7.375C116.906 7.09375 116.906 6.625 116.625 6.4375L115.125 4.9375Z" fill="#616161"/>
<path d="M109.875 7.65625C110.063 7.65625 110.25 7.5625 110.344 7.46875L111.844 5.96875C112.125 5.6875 112.125 5.21875 111.844 5.03125C111.563 4.75 111.094 4.75 110.906 5.03125L109.406 6.53125C109.125 6.8125 109.125 7.28125 109.406 7.46875C109.5 7.5625 109.688 7.65625 109.875 7.65625Z" fill="#616161"/>
<path d="M115.594 0.25L114.094 1.75C113.812 2.03125 113.812 2.5 114.094 2.6875C114.188 2.78125 114.375 2.875 114.563 2.875C114.75 2.875 114.938 2.78125 115.031 2.6875L116.531 1.1875C116.813 0.90625 116.813 0.4375 116.531 0.25C116.25 -0.03125 115.875 -0.03125 115.594 0.25Z" fill="#616161"/>
<path d="M10.3125 102.625C10.0313 102.344 9.56252 102.344 9.37502 102.625C9.18752 102.906 9.09377 103.375 9.37502 103.562L10.875 105.062C10.9688 105.156 11.1563 105.25 11.3438 105.25C11.5313 105.25 11.7188 105.156 11.8125 105.062C12.0938 104.781 12.0938 104.312 11.8125 104.125L10.3125 102.625Z" fill="#616161"/>
<path d="M15 107.312C14.7188 107.031 14.25 107.031 14.0625 107.312C13.7812 107.594 13.7812 108.062 14.0625 108.25L15.5625 109.75C15.6563 109.844 15.8438 109.937 16.0313 109.937C16.2188 109.937 16.4063 109.844 16.5 109.75C16.7813 109.469 16.7813 109 16.5 108.812L15 107.312Z" fill="#616161"/>
<path d="M10.7813 107.312L9.28125 108.812C9 109.094 9 109.562 9.28125 109.75C9.375 109.844 9.5625 109.937 9.75 109.937C9.9375 109.937 10.125 109.844 10.2188 109.75L11.7188 108.25C12 107.969 12 107.5 11.7188 107.312C11.5313 107.031 11.0625 107.031 10.7813 107.312Z" fill="#616161"/>
<path d="M15.5625 102.625L14.0625 104.125C13.7812 104.406 13.7812 104.875 14.0625 105.062C14.1563 105.156 14.3438 105.25 14.5313 105.25C14.7188 105.25 14.9063 105.156 15 105.062L16.5 103.562C16.7813 103.281 16.7813 102.812 16.5 102.625C16.2188 102.344 15.8438 102.344 15.5625 102.625Z" fill="#616161"/>
<path d="M109.031 19.375C105.563 19.2813 101.344 23.5938 100.969 29.3125C100.875 30.625 100.875 32.4063 100.969 34.375C100.969 41.125 101.063 50.6875 98.25 56.5C98.0625 55.4688 97.6875 54.4375 96.8438 53.5938C94.5 51.25 90.75 51.1563 88.4063 53.5L71.0625 70.375C69.4688 71.9688 68.5313 74.125 68.5313 76.375V86.2188H66.9375C64.5 86.2188 62.5312 88.1875 62.5312 90.625V98.5C62.5312 98.6875 62.625 98.875 62.8125 99.0625C62.9063 99.1563 63.0938 99.25 63.2813 99.25C63.375 99.25 63.375 99.25 63.4688 99.25C63.6562 99.25 78.4688 95.875 96.75 99.25C96.9375 99.25 97.125 99.25 97.3125 99.0625C97.5 98.9688 97.5938 98.7813 97.5938 98.5V90.625C97.5938 88.1875 95.625 86.2188 93.1875 86.2188H91.5V84.4375C91.5 83.2188 91.9688 82 92.8125 81.25L109.781 68.125C111.656 66.25 112.688 63.7188 112.688 61.0938V24.5313C112.688 19.8438 109.875 19.4688 109.031 19.375ZM93 87.625C94.6875 87.625 96 88.9375 96 90.625V97.6563C90.0938 96.625 84.5625 96.25 79.7813 96.25C71.8125 96.25 66 97.1875 63.8438 97.5625V90.625C63.8438 88.9375 65.1563 87.625 66.8438 87.625H93ZM111.375 61.0938C111.375 63.3438 110.438 65.5 108.938 67.0938L91.6875 80.2188C90.5625 81.3438 89.9063 82.8438 89.9063 84.4375V86.2188H69.9375V76.375C69.9375 74.5 70.6875 72.7188 72 71.4063L89.3438 54.5313C91.125 52.75 94.125 52.8438 95.9063 54.625C97.4063 56.125 97.3125 58.5625 95.8125 59.9688L91.0313 64.5625C90.75 64.8438 90.75 65.2188 91.0313 65.5C91.3125 65.7813 91.6875 65.7813 91.9688 65.5L96.75 60.9063C102.469 55.75 102.375 42.9063 102.281 34.375C102.281 32.4063 102.281 30.625 102.281 29.4063C102.562 24.1563 106.406 20.7813 108.844 20.7813C108.844 20.7813 108.844 20.7813 108.938 20.7813C111 20.875 111.281 23.2188 111.281 24.5313V61.0938H111.375Z" fill="#616161"/>
<path d="M52.2187 86.2188H50.625V76.375C50.625 74.125 49.6875 71.9688 48.0937 70.375L30.75 53.5C28.4062 51.1563 24.5625 51.25 22.3125 53.5938C21.4687 54.4375 21.0937 55.4688 20.9062 56.5C18.0937 50.5938 18.1875 41.125 18.1875 34.375C18.1875 32.3125 18.1875 30.625 18.1875 29.3125C17.8125 23.5938 13.5937 19.2813 10.125 19.375C9.28125 19.375 6.46875 19.8438 6.46875 24.5313V61C6.46875 63.625 7.5 66.1563 9.46875 68.125L26.4375 81.25C27.2812 82.0938 27.8438 83.3125 27.8438 84.5313V86.3125H26.1562C23.7187 86.3125 21.75 88.2813 21.75 90.7188V98.5938C21.75 98.7813 21.8437 98.9688 22.0312 99.1563C22.125 99.25 22.3125 99.3438 22.5 99.3438H22.5938C40.875 95.9688 55.6875 99.3438 55.875 99.3438C56.0625 99.4375 56.25 99.3438 56.4375 99.25C56.625 99.1563 56.7187 98.875 56.7187 98.6875V90.625C56.625 88.1875 54.6562 86.2188 52.2187 86.2188ZM27.375 80.2188L10.3125 67.0938C8.71875 65.5 7.78125 63.3438 7.78125 61V24.5313C7.78125 23.125 8.0625 20.7813 10.125 20.7813C10.125 20.7813 10.125 20.7813 10.2187 20.7813C12.6562 20.7813 16.5 24.1563 16.7812 29.4063C16.875 30.7188 16.875 32.4063 16.7812 34.375C16.6875 42.9063 16.6875 55.8438 22.3125 60.9063L27.0937 65.5C27.375 65.7813 27.8437 65.7813 28.0312 65.5C28.3125 65.2188 28.3125 64.75 28.0312 64.5625L23.25 59.9688C21.75 58.4688 21.75 56.125 23.1562 54.625C24.9375 52.75 27.8438 52.75 29.7188 54.5313L47.0625 71.4063C48.375 72.7188 49.125 74.5 49.125 76.375V86.2188H29.25V84.4375C29.25 82.8438 28.5938 81.3438 27.375 80.2188ZM55.3125 97.6563C51.9375 97 38.9062 94.9375 23.1562 97.6563V90.625C23.1562 88.9375 24.4687 87.625 26.1562 87.625H52.2187C53.9062 87.625 55.2187 88.9375 55.2187 90.625V97.6563H55.3125Z" fill="#616161"/>
<path d="M65.8125 25.5625C69 25.5625 71.625 24.3438 74.4375 23.0312C80.5312 20.125 87.1875 17.7812 94.875 15.9062C95.25 15.8125 95.4375 15.4375 95.3437 15.1562C95.25 14.7812 94.9687 14.5 94.5937 14.5938C89.625 14.9688 83.9062 10.8438 79.7812 7.84375C79.3125 7.46875 78.8437 7.1875 78.375 6.8125C73.9687 3.71875 68.0625 2.40625 63.4687 3.625C60.0937 4.46875 57.5625 6.625 56.0625 9.8125C54.75 12.625 54.6562 16 55.875 18.9062C53.0625 24.8125 53.4375 32.6875 53.4375 32.9688V33.0625V33.1562V35.875C52.7812 34.4687 51.75 32.875 50.3437 31.4688C50.8125 29.0313 50.1562 26.5 48.4687 24.625C46.7812 22.8438 44.625 21.9062 42.2812 22C39 22.0938 35.3437 24.0625 33.0937 27.0625C32.9062 27.3438 32.625 27.625 32.3437 28C30.2812 30.7188 27.375 34.4688 24.1875 35.125C23.8125 35.2188 23.625 35.5 23.625 35.875C23.625 36.25 24 36.5312 24.375 36.4375C29.7187 36.1562 34.5 36.4375 39 37.0938C40.2187 37.2812 41.3437 37.4688 42.4687 37.4688C43.6875 37.4688 44.9062 37.2812 46.2187 36.7188C47.9062 35.9688 49.125 34.6562 49.875 33.0625C52.5 35.9688 53.3437 39.7188 53.4375 40.0938V56.875C53.4375 57.25 53.7187 57.5312 54.0937 57.5312C54.4687 57.5312 54.75 57.25 54.75 56.875V33.25C54.75 33.1562 54.75 33.1562 54.75 33.1562C54.75 33.0625 54.75 33.0625 54.75 32.9688C54.75 32.875 54.4687 26.0312 56.625 20.5C58.3125 23.2188 60.9375 25 64.125 25.375C64.7812 25.4688 65.25 25.5625 65.8125 25.5625ZM49.2187 30.5313C48 29.5938 46.5937 28.8438 44.9062 28.4688C44.8125 28.4688 42.1875 27.8125 39 29.4062C38.625 29.5938 38.5312 29.9688 38.7187 30.3438C38.9062 30.7188 39.2812 30.8125 39.6562 30.625C42.375 29.2188 44.5312 29.7812 44.5312 29.7812C46.3125 30.25 47.7187 31 48.8437 32.0312C48.375 33.625 47.25 34.8438 45.75 35.5C43.5937 36.4375 41.625 36.1562 39.2812 35.7812C35.9062 35.3125 32.4375 35.0312 28.5937 35.0312C28.3125 35.0312 27.9375 35.0312 27.6562 35.0312C30 33.4375 31.9687 30.8125 33.4687 28.8437C33.75 28.5625 33.9375 28.1875 34.125 27.9062C35.8125 25.75 39 23.5 42.2812 23.4062C44.3437 23.3125 46.0312 24.0625 47.4375 25.6562C48.75 27.0625 49.3125 28.75 49.2187 30.5313ZM57.6562 19.4688C57.5625 19.2812 57.4687 19.0938 57.375 18.9062C57.9375 17.7812 59.0625 16.4688 60.5625 15.3438C61.3125 15.3438 64.7812 15.3437 67.125 17.3125C67.2187 17.4062 67.4062 17.5 67.5937 17.5C67.7812 17.5 67.9687 17.4063 68.1562 17.2188C68.4375 16.9375 68.3437 16.4688 68.0625 16.2813C66.375 14.875 64.2187 14.3125 62.625 14.125C64.3125 13.2812 66.2812 12.8125 68.4375 13C70.5 13.1875 73.2187 13.5625 76.3125 15.4375C76.5937 15.625 77.0625 15.5312 77.25 15.1562C77.4375 14.875 77.3437 14.4062 76.9687 14.2188C73.6875 12.25 70.6875 11.7813 68.4375 11.5938C65.0625 11.3125 62.1562 12.5312 59.9062 14.125C58.5 15.1562 57.375 16.2812 56.625 17.4062C55.9687 15.1562 56.1562 12.625 57.1875 10.4688C58.5 7.65625 60.75 5.78125 63.75 5.03125C64.7812 4.75 65.9062 4.65625 67.0312 4.65625C70.875 4.65625 74.8125 6.15625 77.4375 8.03125C77.9062 8.3125 78.375 8.6875 78.8437 8.96875C82.2187 11.4062 86.4375 14.4062 90.75 15.5312C84.4688 17.3125 78.8437 19.375 73.6875 21.8125C70.5 23.3125 67.875 24.625 64.2187 24.1562C61.5 23.6875 59.0625 22 57.6562 19.4688Z" fill="#5182DD"/>
</svg>

<svg width="120" height="110" fill="none" xmlns="http://www.w3.org/2000/svg"><path d="M1.125 36.063c.375 0 .75-.376.75-.75v-9.094a.64.64 0 0 0-.656-.657.64.64 0 0 0-.656.657v9.093c-.094.376.187.75.562.75zM1.125 43.563a.64.64 0 0 0 .656-.657v-3.281a.64.64 0 0 0-.656-.656.64.64 0 0 0-.656.656v3.281a.64.64 0 0 0 .656.657zM118.875 57.719a.64.64 0 0 0-.656.656v9.094a.64.64 0 0 0 .656.656.64.64 0 0 0 .656-.656v-9.094a.64.64 0 0 0-.656-.656zM118.875 71.125a.64.64 0 0 0-.656.656v3.281a.64.64 0 0 0 .656.657.64.64 0 0 0 .656-.656V71.78a.64.64 0 0 0-.656-.656zM73.313 34.563c0 1.874 1.593 3.468 3.468 3.468s3.469-1.593 3.469-3.468c0-1.876-1.594-3.47-3.469-3.47-1.875 0-3.469 1.595-3.469 3.47zm5.53 0a2.08 2.08 0 0 1-2.062 2.062 2.08 2.08 0 0 1-2.062-2.063A2.08 2.08 0 0 1 76.78 32.5a2.08 2.08 0 0 1 2.063 2.063zM3.938 77.875c-1.876 0-3.47 1.594-3.47 3.469 0 1.875 1.595 3.469 3.47 3.469 1.874 0 3.468-1.594 3.468-3.47a3.46 3.46 0 0 0-3.468-3.468zm0 5.531a2.08 2.08 0 0 1-2.063-2.062 2.08 2.08 0 0 1 2.063-2.063A2.08 2.08 0 0 1 6 81.344a2.08 2.08 0 0 1-2.063 2.062zM25.875 5.781a.64.64 0 0 0 .656.657h11.344a.64.64 0 0 0 .656-.657.64.64 0 0 0-.656-.656H26.531a.64.64 0 0 0-.656.656zM19.125 6.438h3.656a.64.64 0 0 0 .657-.657.64.64 0 0 0-.657-.656h-3.656a.64.64 0 0 0-.656.656.64.64 0 0 0 .656.657zM19.125 2.594H27a.64.64 0 0 0 .656-.656A.64.64 0 0 0 27 1.28h-7.875a.64.64 0 0 0-.656.657.64.64 0 0 0 .656.656zM30.469 2.594H33a.64.64 0 0 0 .656-.656A.64.64 0 0 0 33 1.28h-2.531a.64.64 0 0 0-.657.657.64.64 0 0 0 .657.656zM102.656 104.5a.64.64 0 0 0-.656-.656H90.656a.64.64 0 0 0-.656.656.64.64 0 0 0 .656.656H102c.375.094.656-.281.656-.656zM109.406 103.844h-3.656a.64.64 0 0 0-.656.656.64.64 0 0 0 .656.656h3.656a.641.641 0 0 0 .657-.656.641.641 0 0 0-.657-.656zM109.406 107.688h-7.875a.64.64 0 0 0-.656.656.64.64 0 0 0 .656.656h7.875a.641.641 0 0 0 .657-.656c0-.281-.282-.656-.657-.656zM98.063 107.688H95.53a.64.64 0 0 0-.656.656.64.64 0 0 0 .656.656h2.531a.64.64 0 0 0 .657-.656c.094-.281-.281-.656-.656-.656zM110.812 2.688a.718.718 0 0 0 .469.187.716.716 0 0 0 .469-.188c.281-.28.281-.75 0-.937l-1.5-1.5c-.281-.281-.75-.281-.938 0-.281.281-.281.75 0 .938l1.5 1.5zM115.125 4.938c-.281-.282-.75-.282-.937 0-.282.28-.282.75 0 .937l1.5 1.5a.713.713 0 0 0 .468.188.716.716 0 0 0 .469-.188c.281-.281.281-.75 0-.938l-1.5-1.5zM109.875 7.656a.716.716 0 0 0 .469-.187l1.5-1.5c.281-.282.281-.75 0-.938-.281-.281-.75-.281-.938 0l-1.5 1.5c-.281.282-.281.75 0 .938a.718.718 0 0 0 .469.187zM115.594.25l-1.5 1.5c-.282.281-.282.75 0 .938a.716.716 0 0 0 .469.187.713.713 0 0 0 .468-.188l1.5-1.5c.282-.28.282-.75 0-.937-.281-.281-.656-.281-.937 0zM10.313 102.625c-.282-.281-.75-.281-.938 0-.187.281-.281.75 0 .937l1.5 1.5a.715.715 0 0 0 .469.188.715.715 0 0 0 .469-.188c.28-.281.28-.75 0-.937l-1.5-1.5zM15 107.312c-.281-.281-.75-.281-.938 0-.28.282-.28.75 0 .938l1.5 1.5a.715.715 0 0 0 .47.187.714.714 0 0 0 .468-.187c.281-.281.281-.75 0-.938l-1.5-1.5zM10.781 107.312l-1.5 1.5c-.281.282-.281.75 0 .938a.715.715 0 0 0 .469.187.715.715 0 0 0 .469-.187l1.5-1.5c.281-.281.281-.75 0-.938-.188-.281-.656-.281-.938 0zM15.563 102.625l-1.5 1.5c-.282.281-.282.75 0 .937a.715.715 0 0 0 .468.188.715.715 0 0 0 .469-.188l1.5-1.5c.281-.281.281-.75 0-.937-.281-.281-.656-.281-.938 0zM109.031 19.375c-3.468-.094-7.687 4.219-8.062 9.938-.094 1.312-.094 3.093 0 5.062 0 6.75.094 16.313-2.719 22.125-.188-1.031-.563-2.063-1.406-2.906-2.344-2.344-6.094-2.438-8.438-.094L71.062 70.375c-1.593 1.594-2.53 3.75-2.53 6v9.844h-1.594a4.401 4.401 0 0 0-4.407 4.406V98.5c0 .188.094.375.282.563a.716.716 0 0 0 .468.187h.188c.187 0 15-3.375 33.281 0 .188 0 .375 0 .563-.188.187-.093.28-.28.28-.562v-7.875a4.401 4.401 0 0 0-4.406-4.406H91.5v-1.781c0-1.22.469-2.438 1.313-3.188l16.968-13.125a9.934 9.934 0 0 0 2.907-7.031V24.53c0-4.687-2.813-5.062-3.657-5.156zM93 87.625c1.688 0 3 1.313 3 3v7.031a94.844 94.844 0 0 0-16.219-1.406c-7.969 0-13.781.938-15.937 1.313v-6.938c0-1.688 1.312-3 3-3H93zm18.375-26.531c0 2.25-.937 4.406-2.437 6l-17.25 13.125c-1.126 1.125-1.782 2.625-1.782 4.219v1.78H69.937v-9.843c0-1.875.75-3.656 2.063-4.969l17.344-16.875c1.781-1.781 4.781-1.687 6.562.094 1.5 1.5 1.406 3.938-.094 5.344l-4.78 4.593c-.282.282-.282.657 0 .938.28.281.656.281.937 0l4.781-4.594c5.719-5.156 5.625-18 5.531-26.531v-4.969c.281-5.25 4.125-8.625 6.563-8.625h.094c2.062.094 2.343 2.438 2.343 3.75v36.563h.094zM52.219 86.219h-1.594v-9.844c0-2.25-.938-4.406-2.531-6L30.75 53.5c-2.344-2.344-6.188-2.25-8.438.094-.843.843-1.218 1.875-1.406 2.906-2.812-5.906-2.718-15.375-2.718-22.125v-5.063c-.375-5.718-4.594-10.03-8.063-9.937-.844 0-3.656.469-3.656 5.156V61c0 2.625 1.031 5.156 3 7.125L26.437 81.25c.844.844 1.407 2.063 1.407 3.281v1.781h-1.688a4.401 4.401 0 0 0-4.406 4.407v7.875c0 .187.094.375.281.562a.717.717 0 0 0 .469.188h.094c18.281-3.375 33.093 0 33.281 0 .188.094.375 0 .563-.094.187-.094.28-.375.28-.563v-8.062c-.093-2.438-2.062-4.406-4.5-4.406zm-24.844-6L10.312 67.094A8.578 8.578 0 0 1 7.783 61V24.531c0-1.406.28-3.75 2.343-3.75h.094c2.437 0 6.281 3.375 6.562 8.625.094 1.313.094 3 0 4.969-.093 8.531-.093 21.469 5.532 26.531l4.78 4.594c.282.281.75.281.938 0 .282-.281.282-.75 0-.938L23.25 59.97a3.822 3.822 0 0 1-.094-5.344c1.782-1.875 4.688-1.875 6.563-.094l17.343 16.875a7.024 7.024 0 0 1 2.063 4.969v9.844H29.25v-1.781c0-1.594-.656-3.094-1.875-4.22zm27.938 17.437c-3.376-.656-16.407-2.719-32.157 0v-7.031c0-1.688 1.313-3 3-3H52.22c1.687 0 3 1.313 3 3v7.031h.093z" fill="#616161"/><path d="M65.813 25.563c3.187 0 5.812-1.22 8.624-2.532 6.094-2.906 12.75-5.25 20.438-7.125.375-.094.563-.469.469-.75-.094-.375-.375-.656-.75-.562-4.969.375-10.688-3.75-14.813-6.75-.469-.375-.937-.657-1.406-1.032-4.406-3.093-10.313-4.406-14.906-3.187-3.375.844-5.907 3-7.407 6.188-1.312 2.812-1.406 6.187-.187 9.093-2.813 5.907-2.438 13.782-2.438 14.063V35.875c-.656-1.406-1.687-3-3.093-4.406.468-2.438-.188-4.969-1.875-6.844-1.688-1.781-3.844-2.719-6.188-2.625-3.281.094-6.937 2.063-9.187 5.063-.188.28-.469.562-.75.937-2.063 2.719-4.969 6.469-8.157 7.125-.375.094-.562.375-.562.75s.375.656.75.563c5.344-.282 10.125 0 14.625.656 1.219.187 2.344.375 3.469.375 1.218 0 2.437-.188 3.75-.75 1.687-.75 2.906-2.063 3.656-3.657 2.625 2.907 3.469 6.657 3.563 7.032v16.781a.64.64 0 0 0 .656.656.64.64 0 0 0 .656-.656V33.25v-.094-.187c0-.094-.281-6.938 1.875-12.469 1.688 2.719 4.313 4.5 7.5 4.875.656.094 1.125.188 1.688.188zM49.218 30.53c-1.219-.937-2.625-1.687-4.313-2.062-.093 0-2.718-.657-5.906.937-.375.188-.469.563-.281.938.187.375.562.468.937.281 2.719-1.406 4.875-.844 4.875-.844 1.782.469 3.188 1.219 4.313 2.25-.469 1.594-1.594 2.813-3.094 3.469-2.156.938-4.125.656-6.469.281a76.49 76.49 0 0 0-10.687-.75h-.938c2.344-1.593 4.313-4.218 5.813-6.187.281-.282.468-.657.656-.938 1.688-2.156 4.875-4.406 8.156-4.5 2.063-.093 3.75.657 5.157 2.25 1.312 1.407 1.874 3.094 1.78 4.875zm8.437-11.062l-.281-.563c.563-1.125 1.688-2.437 3.188-3.562.75 0 4.218 0 6.562 1.969a.716.716 0 0 0 .469.187c.187 0 .375-.094.562-.281.281-.282.188-.75-.094-.938-1.687-1.406-3.843-1.968-5.437-2.156A10.801 10.801 0 0 1 68.438 13c2.062.188 4.78.563 7.874 2.438.282.187.75.093.938-.282.188-.281.094-.75-.281-.937-3.281-1.969-6.281-2.438-8.531-2.625-3.376-.281-6.282.937-8.532 2.531-1.406 1.031-2.531 2.156-3.281 3.281a9.874 9.874 0 0 1 .563-6.937C58.5 7.656 60.75 5.78 63.75 5.03c1.031-.281 2.156-.375 3.281-.375 3.844 0 7.781 1.5 10.406 3.375.47.281.938.656 1.407.938 3.375 2.437 7.594 5.437 11.906 6.562-6.281 1.781-11.906 3.844-17.063 6.281-3.187 1.5-5.812 2.813-9.468 2.344a9.337 9.337 0 0 1-6.563-4.687z" fill="#5182DD"/></svg>
